src/topics/icons/dat.svg

<svg height="296" preserveAspectRatio="xMidYMid" viewBox="0 0 256 296" width="256" xmlns="http://www.w3.org/2000/svg"><path d="m0 74.0550788 128-73.90060607 128 73.90060607v147.8012122l-128 73.901576-128-73.901576z" fill="#fff"/><g transform="translate(12.606061 14.545455)"><path d="m115.630255.49658182-115.0244853 66.61527268.68169697 1.1820607 56.91345453 33.3139398 56.7437578-98.91781864z" fill="#95ca71"/><path d="m115.550352.60441212.672969 1.40412121.511031 130.01599967-1.184 1.588364-1.798788-.225939-56.2317579-32.120243z" fill="#7dc262"/><path d="m115.478982 48.271903.131879 85.232485 2.145939-.372364 72.334545-41.4933331z" fill="#67bc59"/><path d="m115.478982 49.2683636.151273-48.77187875 115.034181 66.55806065-.954181 1.324606-40.215273 23.7711515z" fill="#51b755"/><path d="m172.881261 164.059539 55.720727 32.972606 2.062545 2.996364-115.03806 66.528 2.045091-6.646303z" fill="#51b755"/><path d="m174.159224 164.826376-54.443636-31.183515-4.104727-.137697-2.029576 4.738909.512 124.22206 1.517576 4.090182z" fill="#67bc59"/><path d="m115.61057 133.504776-4.840728 1.160727-69.7793935 40.896 72.0795155 42.430061 2.540606-.339394z" fill="#95ca71"/><path d="m115.626376 217.651685v48.904727l-115.0206063-66.536727 2.30012121-2.731637 38.34084849-22.49309z" fill="#7dc262"/><path d="m230.664824 67.0542545v132.9735755l-115.054545-66.523151z" fill="#39b353"/><path d="m115.61057 133.504776-115.00509121-66.3932124v132.9086064z" fill="#b1d58b"/></g></svg>

<?xml version="1.0" encoding="UTF-8" standalone="no"?>
<svg width="256px" height="296px" viewBox="0 0 256 296" version="1.1" xmlns="http://www.w3.org/2000/svg" xmlns:xlink="http://www.w3.org/1999/xlink" preserveAspectRatio="xMidYMid">
	<g>
		<path d="M0,74.0550788 L128,0.154472727 L256,74.0550788 L256,221.856291 L128,295.757867 L0,221.856291 L0,74.0550788 Z" fill="#FFFFFF"></path>
		<g transform="translate(12.606061, 14.545455)">
			<path d="M115.630255,0.496581818 L0.605769697,67.1118545 L1.28746667,68.2939152 L58.2009212,101.607855 L114.944679,2.69003636 L115.630255,0.496581818 Z" fill="#95CA71"></path>
			<path d="M115.550352,0.604412121 L116.223321,2.00853333 L116.734352,132.024533 L115.550352,133.612897 L113.751564,133.386958 L57.5198061,101.266715 L115.550352,0.604412121 Z" fill="#7DC262"></path>
			<path d="M115.478982,48.271903 L115.610861,133.504388 L117.7568,133.132024 L190.091345,91.6386909 L115.478982,48.271903 Z" fill="#67BC59"></path>
			<path d="M115.478982,49.2683636 L115.630255,0.496484848 L230.664436,67.0545455 L229.710255,68.3791515 L189.494982,92.150303 L115.478982,49.2683636 Z" fill="#51B755"></path>
			<path d="M172.881261,164.059539 L228.601988,197.032145 L230.664533,200.028509 L115.626473,266.556509 L117.671564,259.910206 L172.881261,164.059539 Z" fill="#51B755"></path>
			<path d="M174.159224,164.826376 L119.715588,133.642861 L115.610861,133.505164 L113.581285,138.244073 L114.093285,262.466133 L115.610861,266.556315 L174.159224,164.826376 Z" fill="#67BC59"></path>
			<path d="M115.61057,133.504776 L110.769842,134.665503 L40.9904485,175.561503 L113.069964,217.991564 L115.61057,217.65217 L115.61057,133.504776 Z" fill="#95CA71"></path>
			<path d="M115.626376,217.651685 L115.626376,266.556412 L0.605769697,200.019685 L2.90589091,197.288048 L41.2467394,174.794958 L115.626376,217.651685 Z" fill="#7DC262"></path>
			<path d="M230.664824,67.0542545 L230.664824,200.02783 L115.610279,133.504679 L230.664824,67.0542545 Z" fill="#39B353"></path>
			<path d="M115.61057,133.504776 L0.605478788,67.1115636 L0.605478788,200.02017 L115.61057,133.504776 Z" fill="#B1D58B"></path>
		</g>
	</g>
</svg>
